X:1
T:Female Sailor Bold
M:6/8
L:1/4
K:F
 C| F3/2 F G/2| A3/2 A F/2| G/2 F F E/2| F3/2 z A/2| c c/2 c c/2| d d/2 c c/2|\
 d d/2 c A/2| G3/2 z A/2| c3/2 c A/2| c c/2 c C/2| C C/2 F G/2| A3/2 z F/2|\
 C C/2 F G/2| A A/2 A G/2| G G/2 F E/2| F3/2 z||
